X: 24153
T: Loom, The
R: slip jig
M: 9/8
K: Edorian
|:E2B e2c d3|B,2F B2F G2F|E2B e2c d2f|g2f e2d BAF:|
|:G2B d2c d2B|G2B d2g ecA|G2B d2c d2f|g2f e2d BAF:|

